X: 1
T: Tra veglia e sonno  [Am/A]
T: Between awake and asleep
C: Mo. Luigi Canora
R: mazurka
Z: 2011 John Chambers <jc:trillian.mit.edu>
S: printed MS of unknown origin
M: 3/4
L: 1/8
P: AABBACCA
K: Am
"A"\
|: "Am"ab c'a ec | "Dm"B6 | "E7"de fd B^G | "Am"A6 \
| "Am"EA ce ab | "E7"a>^g b4 |1,3 {b}a>^g b4 | "Am"{c'}b>a c'4 :|
[2,4 "E7"{a}^gf ed cB | "Am"Az [ac]!ginf!z z2 :|\
"B"|: "Am"ef/e/ ^de fe | "E"^g>a b4 \
| "E7"ef/e/ ^de fe | "Am"a>b c'4 |
| "A7"a_b/a/ ^ga ba | "Dm"a>f d2>> f2 | "E"e>f e>d c>B \
|1,3 "Am"d3 _d c2 :|2,4 "Am"Az [ac]z z2 :|
"A"|: "Am"ab c'a ec | "Dm"B6 \
| "E7"de fd B^G | "Am"A6 \
| "Am"EA ce ab | "E7"a>^g b4 \
|1 {b}a>^g b4 | "Am"{c'}b>a c'4 :|
[2 "E7"{a}^gf ed cB | "Am"Az [ac]z z2 |] [K:A] "C" \
|: "E7".g.b .f.a .e.g | "E7"dz [d3G3] .a \
| "E7".g.b .f.a .e.g | "A"f>f c3 ^B |
| "A".c.d .^d.e .^e.f | "E7"gz [g3e3] c \
|1,3 "E7".d.e .f.g .a.b | "A"c'z [c'3e3] .a \
:|2,4 "E7"de ^ef c'b | "A"az [ac]z z2 :|
